usr/share/icons/biglinux-icons-material/scalable/apps/swell-foop.svg

<?xml version="1.0" encoding="UTF-8" standalone="no"?>
<svg
   width="24"
   height="24"
   viewBox="0 0 6.349875 6.349875"
   version="1.1"
   id="svg3"
   sodipodi:docname="swell-foop.svg"
   inkscape:version="1.3 (0e150ed6c4, 2023-07-21)"
   xmlns:inkscape="http://www.inkscape.org/namespaces/inkscape"
   xmlns:sodipodi="http://sodipodi.sourceforge.net/DTD/sodipodi-0.dtd"
   xmlns="http://www.w3.org/2000/svg"
   xmlns:svg="http://www.w3.org/2000/svg">
  <defs
     id="defs3">
    <radialGradient
       id="paint0_radial_2_129"
       cx="0"
       cy="0"
       r="1"
       gradientUnits="userSpaceOnUse"
       gradientTransform="matrix(0,5.8207186,-5.8207186,0,3.1749334,0.26459256)">
      <stop
         stop-color="#FAFAFA"
         id="stop8838" />
      <stop
         offset="1"
         stop-color="#B0B0B0"
         id="stop8840"
         style="stop-color:#b0b0b0;stop-opacity:0;" />
    </radialGradient>
  </defs>
  <sodipodi:namedview
     id="namedview3"
     pagecolor="#ffffff"
     bordercolor="#000000"
     borderopacity="0.25"
     inkscape:showpageshadow="2"
     inkscape:pageopacity="0.0"
     inkscape:pagecheckerboard="0"
     inkscape:deskcolor="#d1d1d1"
     inkscape:zoom="35.841475"
     inkscape:cx="10.685944"
     inkscape:cy="11.481112"
     inkscape:window-width="2560"
     inkscape:window-height="998"
     inkscape:window-x="0"
     inkscape:window-y="0"
     inkscape:window-maximized="1"
     inkscape:current-layer="svg3" />
  <path
     id="rect7"
     style="fill:#4d4d4d;fill-opacity:1;stroke-width:0.423277"
     d="m 3.1640857,0.2650949 c -0.1780514,2.884e-4 -0.3562546,0.0059 -0.5343238,0.01757 -0.028905,0.00842 -0.059241,0.012221 -0.090949,0.011885 -0.1964358,0.01579 -0.3903663,0.047229 -0.5818651,0.094049 C 1.135116,0.583987 0.6167103,1.0899165 0.402035,1.9063059 0.313985,2.270323 0.268156,2.638847 0.264578,3.0121597 c -5.11e-4,0.05333 -1.79e-4,0.106673 0.001,0.1601938 -0.0081,0.4026345 0.03143,0.8006453 0.118336,1.1937021 0.2047829,0.8731334 0.7454012,1.4072748 1.6215747,1.6024546 0.4760179,0.09795 0.9570391,0.1343551 1.4427775,0.1090352 0.4318441,-0.0073 0.8516699,-0.079989 1.2603634,-0.2180703 C 5.2129679,5.6744553 5.578065,5.3382556 5.8031149,4.850771 5.9244503,4.5696306 6.0030244,4.2767916 6.0392716,3.972289 6.0877156,3.5390428 6.0979896,3.1047029 6.0697596,2.6695517 6.0493346,2.3230182 5.9827236,1.9857285 5.8697757,1.6577471 5.6722948,1.112992 5.3055351,0.7301642 4.7696061,0.5095194 4.4472444,0.3869087 4.113571,0.312593 3.7691701,0.2857649 3.5878729,0.2729339 3.4068477,0.2661339 3.2255447,0.2650949 Z" />
  <path
     id="path7"
     style="fill:#1f8fd7;fill-opacity:1;stroke-width:0.264578"
     d="m 3.1997417,0.2645781 c -0.00826,-2.18e-5 -0.016546,5.141e-4 -0.024804,5.168e-4 V 3.173904 H 6.0832301 C 6.0837787,3.0059211 6.0807101,2.8378197 6.0697941,2.6695519 6.0493691,2.3230184 5.9827581,1.9857287 5.8698102,1.6577473 5.6723293,1.1129922 5.3055696,0.7301644 4.7696406,0.5095196 4.4472789,0.3869089 4.1136055,0.3125932 3.7692046,0.2857651 3.5792906,0.2723241 3.3896621,0.2650791 3.1997417,0.2645781 Z M 0.265612,3.1744207 c -0.0079,0.4019287 0.03158,0.7992513 0.118336,1.1916351 0.2047831,0.8731334 0.7454014,1.4072748 1.6215749,1.6024546 0.3570134,0.073462 0.7165074,0.112137 1.0789826,0.1162697 0.030034,3.425e-4 0.06036,1.338e-4 0.090432,0 V 3.1744207 Z" />
  <path
     d="M 1.7200892,0.8680327 1.9620873,1.3841486 2.5032831,1.4668676 2.1116861,1.8681444 2.2040851,2.43574 1.7200889,2.1673421 1.2356527,2.43574 1.3280517,1.8681444 0.9364547,1.4668676 1.4776505,1.3841486 Z"
     fill="#ffffff"
     id="path9"
     style="stroke-width:0.423277" />
  <circle
     cx="4.6302266"
     cy="1.7216308"
     r="0.67143476"
     fill="#ffffff"
     id="circle9"
     style="stroke-width:0.423277" />
  <path
     d="M 3.9587916,3.9568084 H 5.3021011 V 5.3001179 H 3.9587916 Z"
     fill="#ffffff"
     id="path10"
     style="stroke-width:0.423277" />
  <circle
     cx="1.7196493"
     cy="4.6300015"
     r="0.67143476"
     fill="#ffffff"
     id="circle10"
     style="stroke-width:0.423277" />
  <path
     fill-rule="evenodd"
     clip-rule="evenodd"
     d="m 2.6298231,0.28252566 c -0.028905,0.00842 -0.059212,0.012456 -0.09092,0.01212 -0.196436,0.01579 -0.3904035,0.047087 -0.5819025,0.093907 C 1.135168,0.58394096 0.616915,1.0898328 0.4022388,1.906223 c -0.100626,0.41602 -0.146085,0.8380909 -0.136384,1.2662577 -0.0081,0.4026349 0.03129,0.8004811 0.1182,1.1935383 0.2047832,0.8731343 0.745266,1.4073172 1.6214403,1.6024972 0.4760184,0.09795 0.9568759,0.134299 1.4426148,0.108979 0.4318445,-0.0073 0.8521003,-0.08001 1.2607942,-0.218091 C 5.2132429,5.6743842 5.5779374,5.3381319 5.8029875,4.8506468 5.924323,4.5695061 6.0031409,4.276671 6.0393881,3.972168 6.0878321,3.5389214 6.0979391,3.1047222 6.0697091,2.6695706 6.0492837,2.3230367 5.98261,1.9857711 5.8696616,1.6577894 5.6721805,1.1130337 5.3054488,0.73033476 4.7695193,0.50968976 4.4471573,0.38707896 4.1137624,0.31235416 3.7693611,0.28552596 c -0.3798283,-0.026881 -0.7596567,-0.027891 -1.139538,-0.003 z"
     fill="url(#paint0_radial_2_129)"
     id="path8836"
     style="fill:url(#paint0_radial_2_129);stroke-width:0.264578;opacity:0.35"
     sodipodi:nodetypes="cccccccccccccccc" />
</svg>

<svg xmlns="http://www.w3.org/2000/svg" width="24" height="24" viewBox="0 0 6.35 6.35"><defs><radialGradient id="a" cx="0" cy="0" r="1" gradientTransform="rotate(90 1.455 1.72) scale(5.82072)" gradientUnits="userSpaceOnUse"><stop stop-color="#FAFAFA"/><stop offset="1" stop-color="#B0B0B0" style="stop-color:#b0b0b0;stop-opacity:0"/></radialGradient></defs><path d="M3.164.265c-.178 0-.356.006-.534.018a.312.312 0 0 1-.091.012c-.197.015-.39.047-.582.094-.822.195-1.34.7-1.555 1.517a4.887 4.887 0 0 0-.136 1.266c-.009.403.031.801.118 1.194.205.873.745 1.407 1.621 1.603.477.097.958.134 1.443.109.432-.008.852-.08 1.26-.219a1.87 1.87 0 0 0 1.095-1.008c.121-.281.2-.574.236-.879.049-.433.059-.867.03-1.302a3.775 3.775 0 0 0-.2-1.012A1.887 1.887 0 0 0 4.77.51a3.583 3.583 0 0 0-1-.224 8.374 8.374 0 0 0-.543-.02Z" style="fill:#4d4d4d;fill-opacity:1;stroke-width:.423277"/><path d="M3.2.265h-.025v2.909h2.908a7.41 7.41 0 0 0-.013-.504 3.775 3.775 0 0 0-.2-1.012A1.887 1.887 0 0 0 4.77.51a3.583 3.583 0 0 0-1-.224C3.58.272 3.39.266 3.2.265ZM.266 3.175c-.008.401.031.799.118 1.191.205.873.745 1.407 1.622 1.603a5.66 5.66 0 0 0 1.079.116h.09v-2.91Z" style="fill:#1f8fd7;fill-opacity:1;stroke-width:.264578"/><path fill="#fff" d="m1.72.868.242.516.541.083-.391.401.092.568-.484-.269-.484.269.092-.568-.392-.401.542-.083Z" style="stroke-width:.423277"/><circle cx="4.63" cy="1.722" r=".671" fill="#fff" style="stroke-width:.423277"/><path fill="#fff" d="M3.959 3.957h1.343V5.3H3.96Z" style="stroke-width:.423277"/><circle cx="1.72" cy="4.63" r=".671" fill="#fff" style="stroke-width:.423277"/><path fill="url(#a)" fill-rule="evenodd" d="M2.63.283a.312.312 0 0 1-.091.012c-.197.015-.39.047-.582.094-.822.195-1.34.7-1.555 1.517-.1.416-.146.838-.136 1.266-.008.403.031.801.118 1.194.205.873.745 1.407 1.621 1.603.477.097.957.134 1.443.108.432-.007.852-.08 1.26-.218a1.87 1.87 0 0 0 1.095-1.008c.121-.281.2-.574.236-.879.049-.433.059-.867.03-1.302a3.775 3.775 0 0 0-.2-1.012A1.886 1.886 0 0 0 4.77.51a3.581 3.581 0 0 0-1-.224A8.37 8.37 0 0 0 2.63.283z" clip-rule="evenodd" style="fill:url(#a);stroke-width:.264578;opacity:.35"/></svg>
